X: 167
T: Aşkı Hüznümle Yarattım...
C: Mildan Niyazi Ayomak
O: Turkey
F: http://compmusic.upf.edu/node/140
N: rast--sarki--aksak--aski_huznumle--mildan_niyazi_bey
N: makam= rast
N: form= sarki
N: usul= aksak = 9/8
M: 9/8
L: 1/16
K: C _1/4B ^f  
Q: 1/4=144
%%MIDI tuningsystem comma53
z4 d2e2 d4 c2B2 c2 | d18  | d2d2 B2A2 d4 B4 AG | G18  | \
w:  Aş kı  hüz nüm  |  le   |  ya rat *  *  tım  bu  ge  |  ce    | 
z4 G2d2 d8-d2 | 
w:  bu  ge ce    | 
z4e2 f2g8-g2  | g2g2 =f2e2 d2c2 B4 ed | \
w:  bu  ge ce    |  ya rat *  *  tım  *  bu  ge  | 
d4d2 =f2e2 d2c2 B2d2  | 
w:  ce   Se ni  bes *  tem  | 
c16 B2 | d2 d2c2 B2d4c4cB  | B18 | z4G2 d2d8-d2  | \
w:  de   |  ya şat *  *  tım  bu  ge  |  ce    |  bu  ge ce    | 
z4 A2B2 c8-c2 | 
w:  bu  ge ce    | 
B2 B2A2 G2d4B4AG  | G12 ABcB ce | d4d2 =f2e2 d2c2 B2d2  | 
w:  ya şat *  *  tım  bu  ge  |  ce   SAZ  |  ce   Se ni  bes *  tem  | 
c16 B2 | d2 d2c2 B2d4c4cB  | B18 | z4G2 d2d8-d2  | \
w:  de   |  ya şat *  *  tım  bu  ge  |  ce    |  bu  ge ce    | 
z4 A2B2 c8-c2 | 
w:  bu  ge ce    | 
B2 B2A2 G2d4B4AG  | G12 d_7/8efd =ed | \
w:  ya şat *  *  tım  bu  ge  |  ce   SAZ  | 
d4d2 _7/8e2f4f2 e2{f}ed  | 
w:  *  Gö zü nün  aç *  *  tı  | 
d8 e4 dcB^A G2 | B4Bc B^ABc BABc BAB2  | 
w:  ğı   |  on maz   | 
d8 B^AB2 c4 B=A | G12de fgfa  | g4 g2a2 g2f2 e4 f2 | 
w:  *  *  *  *  yâ re  |  mi  SAZ  |  *  Gö zü nün  *  aç tı  | 
g16z2  | f4 fgf^e fgfe fgfe f2 | a8f^e f2g4f=e  | 
w:  ğı   |  on maz   |  *  *  *  *  yâ re  | 
d12 defg fg | a4a2 c'2b2 a2g2 f2a2  | \
w:  mi  SAZ  |  *  A cı  bir  *  yaş  | 
g16 f2 | a2 a2g2 f2a4g4gf  | 
w:  la  |  ka nat *  *  tım  bu  ge  | 
f18 | z4d2 a2a8-a2  | a18 | g2 g2=f2 e2d2 c2B4ed  | \
w:  ce    |  bu  ge ce    |   |  ka nat *  *  tım  *  bu  ge  | 
d12 ABcB ce | 
w:  ce   SAZ  | 
d4d2 =f2e2 d2c2 B2d2  | c16 B2 | d2 d2c2 B2d4c4cB  | B18 | \
w:  ce   Se ni  bes *  tem  |  de   |  ya şat *  *  tım  bu  ge  |  ce    | 
z4G2 d2d8-d2  | 
w:  bu  ge ce    | 
z4 A2B2 c8-c2 | B2 B2A2 G2d4B4AG  | G8 |
w:  bu  ge ce    |  ya şat *  *  tım  bu  ge  |  ce    | 


